X:1
T:Title
%%score { ( 1 4 ) | ( 2 3 ) }
L:1/8
Q:1/4=100
M:4/4
K:F
V:1 treble nm="Grand Piano"
V:4 treble 
V:2 bass 
V:3 bass 
V:1
 AAAA _A2 [Ad]2 | [CAc]2 .[EFA]2 [CAc]4 | [CAc][G^c][^Fd][CFA] [DFB]2 [CFA]2 | [B,D]4 [B,DG]4 | %4
w: Ralph~Howard~Pendleton * * * * *||||
 [B,EG][B,EG][B,EG][B,EG] [CEA]2 [B,EG]2 | [A,DF]2 [B,DG]2 [^CA]4 | %6
w: ||
 [=B,G][B,D][B,D][B,D] [B,E]2 [B,F]2 | G4 [Ec]4 | AAAA c2 A2 | A4 G4 | %10
w: ||||
 [EG][EG][EG][EG] [EB]2 [EG]2 | [EG]4 F4 | ddfd dc c2 | BB[Ec][EB] AB c2 | GABG D2 E2 | G4 F4 |] %16
w: ||||||
V:2
 [F,CF][F,CF][F,CF][F,CF] [F,=B,F]2 [F,B,]2 | F,2 z D F,4 | F,[_E,A,][D,A,]D, D,2 D,2 | G,4 G,4 | %4
 C,C,C,C, C,2 C,2 | D,2 B,,2 [A,,E,]4 | [G,,F,][G,,F,][G,,F,][G,,F,] [G,,E,]2 [G,,D,]2 | %7
 [E,B,]2 z2 G,2 z2 | [F,CF][F,CF][F,CF][F,CF] [A,CF]2[K:bass] [F,CF]2 | [B,CE]4 [B,CE]4 | %10
 [C,B,][C,B,][C,B,][C,B,] [C,G,]2 [^C,B,]2 | [D,A,]4 [D,A,D]4 | %12
 [B,DF][B,DF][B,DF][B,DF] [A,CF][A,CF] [A,CF]2 | %13
 [G,CE][G,CE][C,C][C,C] [F,CF][K:treble][G,CE] [A,CF]2 | %14
 [B,D][A,D^F][G,DG][K:bass][G,B,D] [G,B,]2 [C,G,C]2 | [C,B,C]4 [F,A,C]4 |] %16
V:3
 x8 | z2 F,2 z4 | x8 | x8 | x8 | x8 | x8 | C,2- [C,F,]2 C,4 | x6[K:bass] x2 | x8 | x8 | x8 | x8 | %13
 x5[K:treble] x3 | x3[K:bass] x5 | x8 |] %16
V:4
 x8 | x8 | x8 | x8 | x8 | x8 | x8 | z2 D2 z2 C2 | x8 | x8 | x8 | x8 | x8 | x8 | x8 | x8 |] %16

